X:1
T:Title
%%score ( 1 2 ) ( 3 4 )
L:1/8
Q:1/4=110
M:3/4
K:E
V:1 treble nm="Bright Piano"
V:2 treble 
V:3 bass nm="Bright Piano"
V:4 bass 
V:1
 [EG]4 [EG]2 | [EA]4 [EG]2 | [Ec]2 [CA]2 [CF]2 | [B,E]4 [B,D]2 | [DF]4 [DF]2 | [DF]2 [EG]2 [FA]2 | %6
w: Wilhelm~Brockhaus *||||||
 [Ac]2 [GB]2 [DA]2 | [EG]4 z2 | [EG]4 [EG]2 | [EA]4 [EG]2 | [Ec]4 [Ec]2 | c2 B2 [EB]2 | %12
w: ||||||
 [DB]4 [DA]2 | [EG]4 [EG]2 | [DG]4 [DF]2 | E4 z2 | [EF]4 ^AG | F2 G2 [EF]2 | [DF]4 [DB]2 | %19
w: |||||||
 B2 ^A2 [DG]2 | [EF]4 ^AG | [EF]4 [Ec]2 | [Fd]4 [DB]2 | [DB]2 [E^A]2 [F=A]2 | [EG]4 [EG]2 | %25
w: ||||||
 G2 F2 [EG]2 | [DB]4 [DA]2 | [DA]4 z2 | [EG]4 [=DG]2 | B2 A2 [CF]2 | [EG]4 [DF]2 | E4 z2 |] %32
w: |||||||
V:2
 x6 | x6 | x6 | x6 | x6 | x6 | x6 | x6 | x6 | x6 | x6 | E4 z2 | x6 | x6 | x6 | x6 | z2 z2 E2 | %17
 E4 z2 | x6 | D4 z2 | z2 z2 E2 | x6 | x6 | x6 | x6 | E4 z2 | x6 | x6 | x6 | C4 z2 | x6 | x6 |] %32
V:3
 [E,B,]4 [E,^B,]2 | [E,C]4 [E,B,]2 | [A,,A,]4 [A,,A,]2 | [B,,G,]4 [B,,F,]2 | [B,,A,]4 [B,,A,]2 | %5
 A,2 G,2 [B,,D,]2 | F,2 G,2 [B,,F,]2 | E,4 z2 | [E,B,]4 [E,^B,]2 | [E,C]4 [E,B,]2 | %10
 [A,,A,]4 [A,,A,]2 | [B,,G,]4 [B,,G,]2 | [B,,F,]4 [B,,B,]2 | [E,B,]4 [E,B,]2 | [B,,A,]4 [B,,A,]2 | %15
 [E,G,]4 z2 | [C,^A,]4 CB, | [C,^A,]4 [F,A,]2 | [B,,B,]4 [F,B,]2 | [B,,F,]4 [B,,F,]2 | %20
 [C,^A,]4 CB, | [C,^A,]4 [F,A,]2 | [B,,B,]4 [B,,F,]2 | z2 z2 .F,2 | [E,B,]4 [E,B,]2 | %25
 [E,B,]4 [E,B,]2 | [F,A,]4 [B,,B,]2 | [B,,B,]4 z2 | [E,B,]4 [^E,B,]2 | [F,A,]4 [A,,A,]2 | %30
 G,2 z2 z2 | [E,G,]4 z2 |] %32
V:4
 x6 | x6 | x6 | x6 | x6 | B,,4 z2 | B,,4 z2 | x6 | x6 | x6 | x6 | x6 | x6 | x6 | x6 | x6 | %16
 z2 z2 F,2 | x6 | x6 | x6 | z2 z2 F,2 | x6 | x6 | [B,,F,]2 [C,=G,]2 D,-[D,B,] | x6 | x6 | x6 | x6 | %28
 x6 | x6 | B,,2- [B,,B,]2 [B,,A,]2 | x6 |] %32

